X:3
T:Happy Birthday
M:3/4
L:1/4
K:G
V:1
|"G"D/2D/2|"G"E D G|"D"F2 D/2D/2|E D A|
"G"G2 D/2D/2|d B G|"C"F E2|E2 c/2c/2|"G"B G "D"A|"G"G2|
V:2
|"G"D/2D/2|"G"E D G|"D"F2 D/2D/2|E D A|
"G"G2 D/2D/2|B d B|"C"A G2|G2 e/2e/2|"G"d g "D"a|"G"g2|